images/50514092.svg

<?xml version="1.0" encoding="UTF-8"?>
<svg xmlns="http://www.w3.org/2000/svg" xmlns:xlink="http://www.w3.org/1999/xlink" width="300pt" height="300pt" viewBox="0 0 300 300" version="1.1">
<defs>
<g>
<symbol overflow="visible" id="glyph0-0">
<path style="stroke:none;" d="M 0.453125 1.59375 L 0.453125 -6.34375 L 4.953125 -6.34375 L 4.953125 1.59375 Z M 0.953125 1.09375 L 4.453125 1.09375 L 4.453125 -5.84375 L 0.953125 -5.84375 Z M 0.953125 1.09375 "/>
</symbol>
<symbol overflow="visible" id="glyph0-1">
<path style="stroke:none;" d="M 0.890625 -6.5625 L 4.65625 -6.5625 L 4.65625 -5.8125 L 1.765625 -5.8125 L 1.765625 -3.875 L 4.375 -3.875 L 4.375 -3.140625 L 1.765625 -3.140625 L 1.765625 0 L 0.890625 0 Z M 0.890625 -6.5625 "/>
</symbol>
<symbol overflow="visible" id="glyph0-2">
<path style="stroke:none;" d="M 0.890625 -6.5625 L 2.078125 -6.5625 L 4.984375 -1.078125 L 4.984375 -6.5625 L 5.84375 -6.5625 L 5.84375 0 L 4.65625 0 L 1.75 -5.484375 L 1.75 0 L 0.890625 0 Z M 0.890625 -6.5625 "/>
</symbol>
<symbol overflow="visible" id="glyph0-3">
<path style="stroke:none;" d="M 3.546875 -5.953125 C 2.898438 -5.953125 2.382812 -5.710938 2 -5.234375 C 1.625 -4.753906 1.4375 -4.101562 1.4375 -3.28125 C 1.4375 -2.445312 1.625 -1.789062 2 -1.3125 C 2.382812 -0.832031 2.898438 -0.59375 3.546875 -0.59375 C 4.191406 -0.59375 4.703125 -0.832031 5.078125 -1.3125 C 5.453125 -1.789062 5.640625 -2.445312 5.640625 -3.28125 C 5.640625 -4.101562 5.453125 -4.753906 5.078125 -5.234375 C 4.703125 -5.710938 4.191406 -5.953125 3.546875 -5.953125 Z M 3.546875 -6.6875 C 4.460938 -6.6875 5.195312 -6.375 5.75 -5.75 C 6.300781 -5.132812 6.578125 -4.3125 6.578125 -3.28125 C 6.578125 -2.238281 6.300781 -1.410156 5.75 -0.796875 C 5.195312 -0.179688 4.460938 0.125 3.546875 0.125 C 2.617188 0.125 1.878906 -0.179688 1.328125 -0.796875 C 0.773438 -1.410156 0.5 -2.238281 0.5 -3.28125 C 0.5 -4.3125 0.773438 -5.132812 1.328125 -5.75 C 1.878906 -6.375 2.617188 -6.6875 3.546875 -6.6875 Z M 3.546875 -6.6875 "/>
</symbol>
<symbol overflow="visible" id="glyph0-4">
<path style="stroke:none;" d="M 0.890625 -6.5625 L 1.765625 -6.5625 L 1.765625 -3.875 L 5 -3.875 L 5 -6.5625 L 5.890625 -6.5625 L 5.890625 0 L 5 0 L 5 -3.125 L 1.765625 -3.125 L 1.765625 0 L 0.890625 0 Z M 0.890625 -6.5625 "/>
</symbol>
</g>
</defs>
<g id="surface25953">
<rect x="0" y="0" width="300" height="300" style="fill:rgb(100%,100%,100%);fill-opacity:1;stroke:none;"/>
<path style="fill:none;stroke-width:1.2;stroke-linecap:butt;stroke-linejoin:miter;stroke:rgb(20%,80%,80%);stroke-opacity:1;stroke-miterlimit:10;" d="M 185.375 119.066406 L 195.296875 124.078125 "/>
<path style="fill:none;stroke-width:1.2;stroke-linecap:butt;stroke-linejoin:miter;stroke:rgb(0%,0%,0%);stroke-opacity:1;stroke-miterlimit:10;" d="M 195.296875 124.078125 L 205.21875 129.089844 "/>
<path style=" stroke:none;fill-rule:nonzero;fill:rgb(100%,100%,100%);fill-opacity:1;" d="M 179.375 113.566406 L 185.375 113.566406 L 185.375 124.566406 L 179.375 124.566406 Z M 179.375 113.566406 "/>
<g style="fill:rgb(20%,80%,80%);fill-opacity:1;">
  <use xlink:href="#glyph0-1" x="179.375" y="122.229492"/>
</g>
<path style="fill:none;stroke-width:1.2;stroke-linecap:butt;stroke-linejoin:miter;stroke:rgb(0%,0%,0%);stroke-opacity:1;stroke-miterlimit:10;" d="M 205.21875 129.089844 L 223.820312 116.917969 "/>
<path style="fill:none;stroke-width:1.2;stroke-linecap:butt;stroke-linejoin:miter;stroke:rgb(0%,0%,0%);stroke-opacity:1;stroke-miterlimit:10;" d="M 209.941406 132.25 L 224.824219 122.511719 "/>
<path style="fill:none;stroke-width:1.2;stroke-linecap:butt;stroke-linejoin:miter;stroke:rgb(0%,0%,0%);stroke-opacity:1;stroke-miterlimit:10;" d="M 206.457031 151.289062 L 205.21875 129.089844 "/>
<path style="fill:none;stroke-width:1.2;stroke-linecap:butt;stroke-linejoin:miter;stroke:rgb(0%,0%,0%);stroke-opacity:1;stroke-miterlimit:10;" d="M 223.820312 116.917969 L 243.664062 126.941406 "/>
<path style="fill:none;stroke-width:1.2;stroke-linecap:butt;stroke-linejoin:miter;stroke:rgb(0%,0%,0%);stroke-opacity:1;stroke-miterlimit:10;" d="M 243.664062 126.941406 L 244.90625 149.140625 "/>
<path style="fill:none;stroke-width:1.2;stroke-linecap:butt;stroke-linejoin:miter;stroke:rgb(0%,0%,0%);stroke-opacity:1;stroke-miterlimit:10;" d="M 238.566406 129.453125 L 239.558594 147.210938 "/>
<path style="fill:none;stroke-width:1.2;stroke-linecap:butt;stroke-linejoin:miter;stroke:rgb(0%,0%,0%);stroke-opacity:1;stroke-miterlimit:10;" d="M 244.90625 149.140625 L 254.828125 154.152344 "/>
<path style="fill:none;stroke-width:1.2;stroke-linecap:butt;stroke-linejoin:miter;stroke:rgb(20%,80%,80%);stroke-opacity:1;stroke-miterlimit:10;" d="M 254.828125 154.152344 L 264.75 159.164062 "/>
<path style="fill:none;stroke-width:1.2;stroke-linecap:butt;stroke-linejoin:miter;stroke:rgb(0%,0%,0%);stroke-opacity:1;stroke-miterlimit:10;" d="M 244.90625 149.140625 L 226.300781 161.3125 "/>
<path style=" stroke:none;fill-rule:nonzero;fill:rgb(100%,100%,100%);fill-opacity:1;" d="M 261.75 153.664062 L 267.75 153.664062 L 267.75 164.664062 L 261.75 164.664062 Z M 261.75 153.664062 "/>
<g style="fill:rgb(20%,80%,80%);fill-opacity:1;">
  <use xlink:href="#glyph0-1" x="261.75" y="162.327148"/>
</g>
<path style="fill:none;stroke-width:1.2;stroke-linecap:butt;stroke-linejoin:miter;stroke:rgb(0%,0%,0%);stroke-opacity:1;stroke-miterlimit:10;" d="M 226.300781 161.3125 L 206.457031 151.289062 "/>
<path style="fill:none;stroke-width:1.2;stroke-linecap:butt;stroke-linejoin:miter;stroke:rgb(0%,0%,0%);stroke-opacity:1;stroke-miterlimit:10;" d="M 226.675781 155.640625 L 210.800781 147.621094 "/>
<path style="fill:none;stroke-width:1.2;stroke-linecap:butt;stroke-linejoin:miter;stroke:rgb(0%,0%,0%);stroke-opacity:1;stroke-miterlimit:10;" d="M 206.457031 151.289062 L 197.15625 157.375 "/>
<path style="fill:none;stroke-width:1.2;stroke-linecap:butt;stroke-linejoin:miter;stroke:rgb(0%,0%,100%);stroke-opacity:1;stroke-miterlimit:10;" d="M 197.15625 157.375 L 187.855469 163.460938 "/>
<path style="fill:none;stroke-width:1.2;stroke-linecap:butt;stroke-linejoin:miter;stroke:rgb(0%,0%,100%);stroke-opacity:1;stroke-miterlimit:10;" d="M 187.855469 163.460938 L 186.769531 185.667969 "/>
<path style="fill:none;stroke-width:1.2;stroke-linecap:butt;stroke-linejoin:miter;stroke:rgb(0%,0%,0%);stroke-opacity:1;stroke-miterlimit:10;" d="M 167.074219 155.566406 L 177.464844 159.515625 "/>
<path style="fill:none;stroke-width:1.2;stroke-linecap:butt;stroke-linejoin:miter;stroke:rgb(0%,0%,100%);stroke-opacity:1;stroke-miterlimit:10;" d="M 177.464844 159.515625 L 187.855469 163.460938 "/>
<path style=" stroke:none;fill-rule:nonzero;fill:rgb(100%,100%,100%);fill-opacity:1;" d="M 184.855469 157.960938 L 191.855469 157.960938 L 191.855469 168.960938 L 184.855469 168.960938 Z M 184.855469 157.960938 "/>
<g style="fill:rgb(0%,0%,100%);fill-opacity:1;">
  <use xlink:href="#glyph0-2" x="184.855469" y="166.624023"/>
</g>
<path style="fill:none;stroke-width:1.2;stroke-linecap:butt;stroke-linejoin:miter;stroke:rgb(0%,0%,100%);stroke-opacity:1;stroke-miterlimit:10;" d="M 186.769531 185.667969 L 176.042969 188.582031 "/>
<path style="fill:none;stroke-width:1.2;stroke-linecap:butt;stroke-linejoin:miter;stroke:rgb(0%,0%,0%);stroke-opacity:1;stroke-miterlimit:10;" d="M 176.042969 188.582031 L 165.3125 191.496094 "/>
<path style="fill:none;stroke-width:1.2;stroke-linecap:butt;stroke-linejoin:miter;stroke:rgb(0%,0%,100%);stroke-opacity:1;stroke-miterlimit:10;" d="M 183.25 181.203125 L 174.667969 183.53125 "/>
<path style="fill:none;stroke-width:1.2;stroke-linecap:butt;stroke-linejoin:miter;stroke:rgb(0%,0%,0%);stroke-opacity:1;stroke-miterlimit:10;" d="M 174.667969 183.53125 L 166.089844 185.863281 "/>
<path style=" stroke:none;fill-rule:nonzero;fill:rgb(100%,100%,100%);fill-opacity:1;" d="M 183.769531 180.167969 L 190.769531 180.167969 L 190.769531 191.167969 L 183.769531 191.167969 Z M 183.769531 180.167969 "/>
<g style="fill:rgb(0%,0%,100%);fill-opacity:1;">
  <use xlink:href="#glyph0-2" x="183.769531" y="188.831055"/>
</g>
<path style="fill:none;stroke-width:1.2;stroke-linecap:butt;stroke-linejoin:miter;stroke:rgb(0%,0%,0%);stroke-opacity:1;stroke-miterlimit:10;" d="M 165.3125 191.496094 L 153.140625 172.890625 "/>
<path style="fill:none;stroke-width:1.2;stroke-linecap:butt;stroke-linejoin:miter;stroke:rgb(0%,0%,0%);stroke-opacity:1;stroke-miterlimit:10;" d="M 153.140625 172.890625 L 167.074219 155.566406 "/>
<path style="fill:none;stroke-width:1.2;stroke-linecap:butt;stroke-linejoin:miter;stroke:rgb(0%,0%,0%);stroke-opacity:1;stroke-miterlimit:10;" d="M 150.457031 167.882812 L 161.601562 154.019531 "/>
<path style="fill:none;stroke-width:1.2;stroke-linecap:butt;stroke-linejoin:miter;stroke:rgb(0%,0%,0%);stroke-opacity:1;stroke-miterlimit:10;" d="M 131.171875 169.488281 L 153.140625 172.890625 "/>
<path style="fill:none;stroke-width:1.2;stroke-linecap:butt;stroke-linejoin:miter;stroke:rgb(0%,0%,0%);stroke-opacity:1;stroke-miterlimit:10;" d="M 167.074219 155.566406 L 163.054688 145.203125 "/>
<path style="fill:none;stroke-width:1.2;stroke-linecap:butt;stroke-linejoin:miter;stroke:rgb(0%,0%,100%);stroke-opacity:1;stroke-miterlimit:10;" d="M 163.054688 145.203125 L 159.035156 134.839844 "/>
<path style="fill:none;stroke-width:1.2;stroke-linecap:butt;stroke-linejoin:miter;stroke:rgb(0%,0%,100%);stroke-opacity:1;stroke-miterlimit:10;" d="M 159.035156 134.839844 L 166 126.175781 "/>
<path style="fill:none;stroke-width:1.2;stroke-linecap:butt;stroke-linejoin:miter;stroke:rgb(0%,0%,0%);stroke-opacity:1;stroke-miterlimit:10;" d="M 166 126.175781 L 172.964844 117.511719 "/>
<path style="fill:none;stroke-width:1.2;stroke-linecap:butt;stroke-linejoin:miter;stroke:rgb(0%,0%,100%);stroke-opacity:1;stroke-miterlimit:10;" d="M 159.035156 134.839844 L 148.046875 133.136719 "/>
<path style="fill:none;stroke-width:1.2;stroke-linecap:butt;stroke-linejoin:miter;stroke:rgb(0%,0%,0%);stroke-opacity:1;stroke-miterlimit:10;" d="M 148.046875 133.136719 L 137.0625 131.4375 "/>
<path style=" stroke:none;fill-rule:nonzero;fill:rgb(100%,100%,100%);fill-opacity:1;" d="M 156.035156 129.339844 L 163.035156 129.339844 L 163.035156 140.339844 L 156.035156 140.339844 Z M 156.035156 129.339844 "/>
<g style="fill:rgb(0%,0%,100%);fill-opacity:1;">
  <use xlink:href="#glyph0-2" x="156.035156" y="138.00293"/>
</g>
<path style="fill:none;stroke-width:1.2;stroke-linecap:butt;stroke-linejoin:miter;stroke:rgb(0%,0%,0%);stroke-opacity:1;stroke-miterlimit:10;" d="M 139.5 130.492188 L 135.480469 120.125 "/>
<path style="fill:none;stroke-width:1.2;stroke-linecap:butt;stroke-linejoin:miter;stroke:rgb(100%,0%,0%);stroke-opacity:1;stroke-miterlimit:10;" d="M 135.480469 120.125 L 131.460938 109.761719 "/>
<path style="fill:none;stroke-width:1.2;stroke-linecap:butt;stroke-linejoin:miter;stroke:rgb(0%,0%,0%);stroke-opacity:1;stroke-miterlimit:10;" d="M 134.625 132.382812 L 130.605469 122.019531 "/>
<path style="fill:none;stroke-width:1.2;stroke-linecap:butt;stroke-linejoin:miter;stroke:rgb(100%,0%,0%);stroke-opacity:1;stroke-miterlimit:10;" d="M 130.605469 122.019531 L 126.585938 111.652344 "/>
<path style="fill:none;stroke-width:1.2;stroke-linecap:butt;stroke-linejoin:miter;stroke:rgb(0%,0%,0%);stroke-opacity:1;stroke-miterlimit:10;" d="M 137.0625 131.4375 L 123.132812 148.761719 "/>
<path style=" stroke:none;fill-rule:nonzero;fill:rgb(100%,100%,100%);fill-opacity:1;" d="M 121.023438 105.207031 L 129.023438 105.207031 L 129.023438 116.207031 L 121.023438 116.207031 Z M 121.023438 105.207031 "/>
<g style="fill:rgb(100%,0%,0%);fill-opacity:1;">
  <use xlink:href="#glyph0-3" x="121.023438" y="113.870117"/>
</g>
<path style="fill:none;stroke-width:1.2;stroke-linecap:butt;stroke-linejoin:miter;stroke:rgb(0%,0%,0%);stroke-opacity:1;stroke-miterlimit:10;" d="M 123.132812 148.761719 L 131.171875 169.488281 "/>
<path style="fill:none;stroke-width:1.2;stroke-linecap:butt;stroke-linejoin:miter;stroke:rgb(0%,0%,0%);stroke-opacity:1;stroke-miterlimit:10;" d="M 128.8125 148.945312 L 135.242188 165.527344 "/>
<path style="fill:none;stroke-width:1.2;stroke-linecap:butt;stroke-linejoin:miter;stroke:rgb(0%,0%,0%);stroke-opacity:1;stroke-miterlimit:10;" d="M 131.171875 169.488281 L 124.203125 178.152344 "/>
<path style="fill:none;stroke-width:1.2;stroke-linecap:butt;stroke-linejoin:miter;stroke:rgb(100%,0%,0%);stroke-opacity:1;stroke-miterlimit:10;" d="M 124.203125 178.152344 L 117.238281 186.816406 "/>
<path style="fill:none;stroke-width:1.2;stroke-linecap:butt;stroke-linejoin:miter;stroke:rgb(100%,0%,0%);stroke-opacity:1;stroke-miterlimit:10;" d="M 117.238281 186.816406 L 106.253906 185.113281 "/>
<path style="fill:none;stroke-width:1.2;stroke-linecap:butt;stroke-linejoin:miter;stroke:rgb(0%,0%,0%);stroke-opacity:1;stroke-miterlimit:10;" d="M 106.253906 185.113281 L 95.269531 183.414062 "/>
<path style=" stroke:none;fill-rule:nonzero;fill:rgb(100%,100%,100%);fill-opacity:1;" d="M 113.238281 181.316406 L 121.238281 181.316406 L 121.238281 192.316406 L 113.238281 192.316406 Z M 113.238281 181.316406 "/>
<g style="fill:rgb(100%,0%,0%);fill-opacity:1;">
  <use xlink:href="#glyph0-3" x="113.238281" y="189.979492"/>
</g>
<path style="fill:none;stroke-width:1.2;stroke-linecap:butt;stroke-linejoin:miter;stroke:rgb(0%,0%,0%);stroke-opacity:1;stroke-miterlimit:10;" d="M 95.269531 183.414062 L 87.230469 162.6875 "/>
<path style="fill:none;stroke-width:1.2;stroke-linecap:butt;stroke-linejoin:miter;stroke:rgb(0%,0%,0%);stroke-opacity:1;stroke-miterlimit:10;" d="M 89.585938 183.234375 L 83.15625 166.652344 "/>
<path style="fill:none;stroke-width:1.2;stroke-linecap:butt;stroke-linejoin:miter;stroke:rgb(0%,0%,0%);stroke-opacity:1;stroke-miterlimit:10;" d="M 81.335938 200.738281 L 95.269531 183.414062 "/>
<path style="fill:none;stroke-width:1.2;stroke-linecap:butt;stroke-linejoin:miter;stroke:rgb(0%,0%,0%);stroke-opacity:1;stroke-miterlimit:10;" d="M 87.230469 162.6875 L 65.257812 159.285156 "/>
<path style="fill:none;stroke-width:1.2;stroke-linecap:butt;stroke-linejoin:miter;stroke:rgb(0%,0%,0%);stroke-opacity:1;stroke-miterlimit:10;" d="M 65.257812 159.285156 L 51.328125 176.609375 "/>
<path style="fill:none;stroke-width:1.2;stroke-linecap:butt;stroke-linejoin:miter;stroke:rgb(0%,0%,0%);stroke-opacity:1;stroke-miterlimit:10;" d="M 67.941406 164.292969 L 56.796875 178.15625 "/>
<path style="fill:none;stroke-width:1.2;stroke-linecap:butt;stroke-linejoin:miter;stroke:rgb(0%,0%,0%);stroke-opacity:1;stroke-miterlimit:10;" d="M 65.257812 159.285156 L 57.21875 138.554688 "/>
<path style="fill:none;stroke-width:1.2;stroke-linecap:butt;stroke-linejoin:miter;stroke:rgb(0%,0%,0%);stroke-opacity:1;stroke-miterlimit:10;" d="M 51.328125 176.609375 L 59.367188 197.339844 "/>
<path style="fill:none;stroke-width:1.2;stroke-linecap:butt;stroke-linejoin:miter;stroke:rgb(0%,0%,0%);stroke-opacity:1;stroke-miterlimit:10;" d="M 59.367188 197.339844 L 81.335938 200.738281 "/>
<path style="fill:none;stroke-width:1.2;stroke-linecap:butt;stroke-linejoin:miter;stroke:rgb(0%,0%,0%);stroke-opacity:1;stroke-miterlimit:10;" d="M 62.363281 192.507812 L 79.941406 195.230469 "/>
<path style="fill:none;stroke-width:1.2;stroke-linecap:butt;stroke-linejoin:miter;stroke:rgb(0%,0%,0%);stroke-opacity:1;stroke-miterlimit:10;" d="M 81.335938 200.738281 L 89.375 221.46875 "/>
<path style="fill:none;stroke-width:1.2;stroke-linecap:butt;stroke-linejoin:miter;stroke:rgb(0%,0%,0%);stroke-opacity:1;stroke-miterlimit:10;" d="M 57.621094 135.972656 L 46.636719 134.269531 "/>
<path style="fill:none;stroke-width:1.2;stroke-linecap:butt;stroke-linejoin:miter;stroke:rgb(100%,0%,0%);stroke-opacity:1;stroke-miterlimit:10;" d="M 46.636719 134.269531 L 35.648438 132.570312 "/>
<path style="fill:none;stroke-width:1.2;stroke-linecap:butt;stroke-linejoin:miter;stroke:rgb(0%,0%,0%);stroke-opacity:1;stroke-miterlimit:10;" d="M 56.820312 141.140625 L 45.835938 139.441406 "/>
<path style="fill:none;stroke-width:1.2;stroke-linecap:butt;stroke-linejoin:miter;stroke:rgb(100%,0%,0%);stroke-opacity:1;stroke-miterlimit:10;" d="M 45.835938 139.441406 L 34.851562 137.738281 "/>
<path style="fill:none;stroke-width:1.2;stroke-linecap:butt;stroke-linejoin:miter;stroke:rgb(0%,0%,0%);stroke-opacity:1;stroke-miterlimit:10;" d="M 57.21875 138.554688 L 64.1875 129.894531 "/>
<path style="fill:none;stroke-width:1.2;stroke-linecap:butt;stroke-linejoin:miter;stroke:rgb(0%,0%,100%);stroke-opacity:1;stroke-miterlimit:10;" d="M 64.1875 129.894531 L 71.152344 121.230469 "/>
<path style=" stroke:none;fill-rule:nonzero;fill:rgb(100%,100%,100%);fill-opacity:1;" d="M 27.25 129.65625 L 35.25 129.65625 L 35.25 140.65625 L 27.25 140.65625 Z M 27.25 129.65625 "/>
<g style="fill:rgb(100%,0%,0%);fill-opacity:1;">
  <use xlink:href="#glyph0-3" x="27.25" y="138.319336"/>
</g>
<path style="fill:none;stroke-width:1.2;stroke-linecap:butt;stroke-linejoin:miter;stroke:rgb(0%,0%,100%);stroke-opacity:1;stroke-miterlimit:10;" d="M 71.152344 121.230469 L 67.132812 110.867188 "/>
<path style="fill:none;stroke-width:1.2;stroke-linecap:butt;stroke-linejoin:miter;stroke:rgb(0%,0%,0%);stroke-opacity:1;stroke-miterlimit:10;" d="M 67.132812 110.867188 L 63.113281 100.503906 "/>
<path style=" stroke:none;fill-rule:nonzero;fill:rgb(100%,100%,100%);fill-opacity:1;" d="M 64.152344 115.730469 L 78.152344 115.730469 L 78.152344 126.730469 L 64.152344 126.730469 Z M 64.152344 115.730469 "/>
<g style="fill:rgb(0%,0%,100%);fill-opacity:1;">
  <use xlink:href="#glyph0-2" x="64.152344" y="124.393555"/>
  <use xlink:href="#glyph0-4" x="71.129883" y="124.393555"/>
</g>
<path style="fill:none;stroke-width:1.2;stroke-linecap:butt;stroke-linejoin:miter;stroke:rgb(0%,0%,0%);stroke-opacity:1;stroke-miterlimit:10;" d="M 63.113281 100.503906 L 45.785156 86.570312 "/>
<path style="fill:none;stroke-width:1.2;stroke-linecap:butt;stroke-linejoin:miter;stroke:rgb(0%,0%,0%);stroke-opacity:1;stroke-miterlimit:10;" d="M 66.515625 78.53125 L 63.113281 100.503906 "/>
<path style="fill:none;stroke-width:1.2;stroke-linecap:butt;stroke-linejoin:miter;stroke:rgb(0%,0%,0%);stroke-opacity:1;stroke-miterlimit:10;" d="M 45.785156 86.570312 L 66.515625 78.53125 "/>
</g>
</svg>

<svg xmlns="http://www.w3.org/2000/svg" xmlns:xlink="http://www.w3.org/1999/xlink" width="300pt" height="300pt" viewBox="0 0 300 300"><defs><symbol overflow="visible"><path d="M.453 1.594v-7.938h4.5v7.938zm.5-.5h3.5v-6.938h-3.5zm0 0"/></symbol><symbol overflow="visible" id="a"><path d="M.89-6.563h3.766v.75h-2.89v1.938h2.61v.734h-2.61V0H.89zm0 0"/></symbol><symbol overflow="visible" id="b"><path d="M.89-6.563H2.08l2.906 5.485v-5.484h.86V0H4.656L1.75-5.484V0H.89zm0 0"/></symbol><symbol overflow="visible" id="c"><path d="M3.547-5.953c-.65 0-1.164.242-1.547.72-.375.48-.563 1.13-.563 1.952 0 .835.188 1.49.563 1.967.383.48.898.72 1.547.72.644 0 1.156-.24 1.53-.72.376-.476.564-1.132.564-1.968 0-.822-.187-1.474-.562-1.954-.375-.477-.887-.72-1.53-.72zm0-.734c.914 0 1.648.312 2.203.937.55.617.828 1.438.828 2.47 0 1.042-.277 1.87-.828 2.483-.555.617-1.29.922-2.203.922-.93 0-1.668-.305-2.22-.922C.774-1.41.5-2.237.5-3.28c0-1.033.273-1.853.828-2.47.55-.625 1.29-.938 2.22-.938zm0 0"/></symbol><symbol overflow="visible" id="d"><path d="M.89-6.563h.876v2.688H5v-2.688h.89V0H5v-3.125H1.766V0H.89zm0 0"/></symbol></defs><g><path fill="#fff" d="M0 0h300v300H0z"/><path d="M185.375 119.066l9.922 5.012" stroke-width="1.2" stroke="#3cc" stroke-miterlimit="10" fill="none"/><path d="M195.297 124.078l9.922 5.012" stroke-width="1.2" stroke="#000" stroke-miterlimit="10" fill="none"/><path d="M179.375 113.566h6v11h-6zm0 0" fill="#fff"/><use xlink:href="#a" x="179.375" y="122.229" fill="#3cc"/><path d="M205.22 129.09l18.6-12.172M209.94 132.25l14.884-9.738M206.457 151.29l-1.238-22.2M223.82 116.918l19.844 10.023M243.664 126.94l1.242 22.2M238.566 129.453l.993 17.758M244.906 149.14l9.922 5.012" stroke-width="1.2" stroke="#000" stroke-miterlimit="10" fill="none"/><path d="M254.828 154.152l9.922 5.012" stroke-width="1.2" stroke="#3cc" stroke-miterlimit="10" fill="none"/><path d="M244.906 149.14L226.3 161.314" stroke-width="1.2" stroke="#000" stroke-miterlimit="10" fill="none"/><path d="M261.75 153.664h6v11h-6zm0 0" fill="#fff"/><use xlink:href="#a" x="261.75" y="162.327" fill="#3cc"/><path d="M226.3 161.313l-19.843-10.024M226.676 155.64l-15.875-8.02M206.457 151.29l-9.3 6.085" stroke-width="1.2" stroke="#000" stroke-miterlimit="10" fill="none"/><path d="M197.156 157.375l-9.3 6.086M187.855 163.46l-1.085 22.208" stroke-width="1.2" stroke="#00f" stroke-miterlimit="10" fill="none"/><path d="M167.074 155.566l10.39 3.95" stroke-width="1.2" stroke="#000" stroke-miterlimit="10" fill="none"/><path d="M177.465 159.516l10.39 3.945" stroke-width="1.2" stroke="#00f" stroke-miterlimit="10" fill="none"/><path d="M184.855 157.96h7v11h-7zm0 0" fill="#fff"/><use xlink:href="#b" x="184.855" y="166.624" fill="#00f"/><path d="M186.77 185.668l-10.727 2.914" stroke-width="1.2" stroke="#00f" stroke-miterlimit="10" fill="none"/><path d="M176.043 188.582l-10.73 2.914" stroke-width="1.2" stroke="#000" stroke-miterlimit="10" fill="none"/><path d="M183.25 181.203l-8.582 2.328" stroke-width="1.2" stroke="#00f" stroke-miterlimit="10" fill="none"/><path d="M174.668 183.53l-8.578 2.333" stroke-width="1.2" stroke="#000" stroke-miterlimit="10" fill="none"/><path d="M183.77 180.168h7v11h-7zm0 0" fill="#fff"/><use xlink:href="#b" x="183.77" y="188.831" fill="#00f"/><path d="M165.313 191.496L153.14 172.89M153.14 172.89l13.934-17.324M150.457 167.883l11.145-13.863M131.172 169.488l21.97 3.403M167.074 155.566l-4.02-10.363" stroke-width="1.2" stroke="#000" stroke-miterlimit="10" fill="none"/><path d="M163.055 145.203l-4.02-10.363M159.035 134.84l6.965-8.664" stroke-width="1.2" stroke="#00f" stroke-miterlimit="10" fill="none"/><path d="M166 126.176l6.965-8.664" stroke-width="1.2" stroke="#000" stroke-miterlimit="10" fill="none"/><path d="M159.035 134.84l-10.988-1.703" stroke-width="1.2" stroke="#00f" stroke-miterlimit="10" fill="none"/><path d="M148.047 133.137l-10.984-1.7" stroke-width="1.2" stroke="#000" stroke-miterlimit="10" fill="none"/><path d="M156.035 129.34h7v11h-7zm0 0" fill="#fff"/><use xlink:href="#b" x="156.035" y="138.003" fill="#00f"/><path d="M139.5 130.492l-4.02-10.367" stroke-width="1.2" stroke="#000" stroke-miterlimit="10" fill="none"/><path d="M135.48 120.125l-4.02-10.363" stroke-width="1.2" stroke="#f00" stroke-miterlimit="10" fill="none"/><path d="M134.625 132.383l-4.02-10.363" stroke-width="1.2" stroke="#000" stroke-miterlimit="10" fill="none"/><path d="M130.605 122.02l-4.02-10.368" stroke-width="1.2" stroke="#f00" stroke-miterlimit="10" fill="none"/><path d="M137.063 131.438l-13.93 17.324" stroke-width="1.2" stroke="#000" stroke-miterlimit="10" fill="none"/><path d="M121.023 105.207h8v11h-8zm0 0" fill="#fff"/><use xlink:href="#c" x="121.023" y="113.87" fill="#f00"/><path d="M123.133 148.762l8.04 20.726M128.813 148.945l6.43 16.582M131.172 169.488l-6.97 8.664" stroke-width="1.2" stroke="#000" stroke-miterlimit="10" fill="none"/><path d="M124.203 178.152l-6.965 8.664M117.238 186.816l-10.984-1.703" stroke-width="1.2" stroke="#f00" stroke-miterlimit="10" fill="none"/><path d="M106.254 185.113l-10.984-1.7" stroke-width="1.2" stroke="#000" stroke-miterlimit="10" fill="none"/><path d="M113.238 181.316h8v11h-8zm0 0" fill="#fff"/><use xlink:href="#c" x="113.238" y="189.979" fill="#f00"/><path d="M95.27 183.414l-8.04-20.726M89.586 183.234l-6.43-16.582M81.336 200.738l13.934-17.324M87.23 162.688l-21.972-3.403M65.258 159.285l-13.93 17.324M67.94 164.293l-11.143 13.863M65.258 159.285l-8.04-20.73M51.328 176.61l8.04 20.73M59.367 197.34l21.97 3.398M62.363 192.508l17.578 2.722M81.336 200.738l8.04 20.73M57.62 135.973l-10.983-1.703" stroke-width="1.2" stroke="#000" stroke-miterlimit="10" fill="none"/><path d="M46.637 134.27l-10.99-1.7" stroke-width="1.2" stroke="#f00" stroke-miterlimit="10" fill="none"/><path d="M56.82 141.14l-10.984-1.7" stroke-width="1.2" stroke="#000" stroke-miterlimit="10" fill="none"/><path d="M45.836 139.44l-10.984-1.702" stroke-width="1.2" stroke="#f00" stroke-miterlimit="10" fill="none"/><path d="M57.22 138.555l6.968-8.66" stroke-width="1.2" stroke="#000" stroke-miterlimit="10" fill="none"/><path d="M64.188 129.895l6.964-8.665" stroke-width="1.2" stroke="#00f" stroke-miterlimit="10" fill="none"/><path d="M27.25 129.656h8v11h-8zm0 0" fill="#fff"/><use xlink:href="#c" x="27.25" y="138.319" fill="#f00"/><path d="M71.152 121.23l-4.02-10.363" stroke-width="1.2" stroke="#00f" stroke-miterlimit="10" fill="none"/><path d="M67.133 110.867l-4.02-10.363" stroke-width="1.2" stroke="#000" stroke-miterlimit="10" fill="none"/><path d="M64.152 115.73h14v11h-14zm0 0" fill="#fff"/><g fill="#00f"><use xlink:href="#b" x="64.152" y="124.394"/><use xlink:href="#d" x="71.13" y="124.394"/></g><path d="M63.113 100.504L45.785 86.57M66.516 78.53l-3.403 21.974M45.785 86.57l20.73-8.04" stroke-width="1.2" stroke="#000" stroke-miterlimit="10" fill="none"/></g></svg>
